resources/svg/trophy.svg

<svg xmlns="http://www.w3.org/2000/svg" viewBox="0 0 15 15" fill="currentColor"><path fill-rule="evenodd" clip-rule="evenodd" d="M4.5 0C3.67157 0 3 0.671573 3 1.5V2H2.5C1.11929 2 0 3.11929 0 4.5C0 5.88071 1.11929 7 2.5 7H3.25606C3.82053 8.59703 5.26092 9.78029 7 9.97254V14H4V15H11V14H8V9.97254C9.73908 9.78029 11.1795 8.59703 11.7439 7H12.5C13.8807 7 15 5.88071 15 4.5C15 3.11929 13.8807 2 12.5 2H12V1.5C12 0.671573 11.3284 0 10.5 0H4.5ZM12 3V5.5C12 5.669 11.9907 5.83583 11.9725 6H12.5C13.3284 6 14 5.32843 14 4.5C14 3.67157 13.3284 3 12.5 3H12ZM2.5 3H3V5.5C3 5.669 3.00932 5.83583 3.02746 6H2.5C1.67157 6 1 5.32843 1 4.5C1 3.67157 1.67157 3 2.5 3Z" fill="black"/></svg>

<svg xmlns="http://www.w3.org/2000/svg" viewBox="0 0 15 15" fill="currentColor"><path fill-rule="evenodd" clip-rule="evenodd" d="M4.5 0A1.5 1.5 0 003 1.5V2h-.5a2.5 2.5 0 000 5h.756A4.504 4.504 0 007 9.973V14H4v1h7v-1H8V9.973A4.504 4.504 0 0011.744 7h.756a2.5 2.5 0 000-5H12v-.5A1.5 1.5 0 0010.5 0h-6zM12 3v2.5c0 .169-.01.336-.027.5h.527a1.5 1.5 0 000-3H12zM2.5 3H3v2.5c0 .169.01.336.027.5H2.5a1.5 1.5 0 110-3z" fill="currentColor"/></svg>
